X:1
T:Hear the Happy Voices Ringing
T:Hear the Happy Voices Ringing
T:Joseph Lincoln Hall
T:Louella Leonard, 1900
T:Public Domain Courtesy of the Cyber Hymnal™
T:Public Domain Courtesy of the Cyber Hymnal™
C:Joseph Lincoln Hall
Z:Public Domain
Z:Courtesy of the Cyber Hymnal™
%%score ( 1 2 ) ( 3 4 )
L:1/8
Q:1/4=107
M:4/4
K:C
V:1 treble 
V:2 treble 
V:3 bass 
V:4 bass 
V:1
 [CE]>[CE] | [EG]2 [EG]2 [^D^F]2 [EG]2 | [FA]2 [EG]4 [EG]>[EG] | [FA]2 F2 [Fc]2 [FA]2 | %4
w: 1.~Hear the|hap- py voic- es|ring- ing, All up-|raised in joy- ous|
w: 2.~Hark! the|mu- sic sweet is|sound- ing, On the|per- fumed sum- mer|
w: 3.~Flow’rs their|pret- ty heads are|bend- ing, In the|gen- tle sum- mer|
 [EG]6 [CE]>[CE] | [EG]2 [EG]2 [^D^F]2 [EG]2 | [Ec]2 [Ge]4 [Ge]>[Ge] | [Gd]2 (GA) [GB]2 [^FA]2 | %8
w: song; Glad- some|notes to Heav’n are|wing- ing, From the|hap- py * child- ish|
w: air; From the|woods and fields re-|sound- ing, Na- ture|an- swers * ev- ery-|
w: breeze; Gold and|crim- son soft- ly|ben- ding, With the|green and * wav- ing|
 G6 G>G | [Fd]2 [Fc]2 [FB]2 [FA]2 | [FA]2 [FG]4 [FG]>[FG] | [Fd]2 [Fc]2 [FB]2 [FG]2 | %12
w: throng. Sweet to|hear God’s joy- ous|child- ren, Prais- ing|Him, their heav’n- ly|
w: where. How the|bright and hap- py|fac- es, Scat- ter|sun- shine on the|
w: trees. Streams are|in the sun- light|danc- ing, Glid- ing|swift- ly on their|
 [Ec]6 [EG]>[EG] | [FA]2 (^GA) (dc) (BA) | [FA]2 [EG]4 [Fc]>[FA] | [EG]2 [CE]2 [B,D]3 [B,E] | %16
w: king; He will|ev- er * keep * them *|shel- tered, ’Neath the|sha- dow of His|
w: way; With their|win- some, * smil- * ing *|grac- es, On this|joy- ous Child- ren’s|
w: way; In their|ne- ver * ceas- * ing *|mo- tion, Em- blems|of e- ter- nal|
 C6 z2 ||"^Refrain" [EG]2 [CE]2 [EG]2 [CE]2 | [^DA]4 [EG]4 | [Ec]2 [EB]2 [EA]2 E2 | %20
w: wing.|Ring- ing, ring- ing,|ring- ing,|Hear the child- ren’s|
w: Day.||||
w: day.||||
 [FA][FA][FA][FA] [FG]4 | [Fd]2 [F^c]2 [Fd]2 [Fc]2 | [Fd]4 [FG]4 | [Fd]2 [Fc]2 [FB]2 [FA]2 | %24
w: hap- py voic- es ring;|Sing- ing, sing- ing,|sing- ing,|Hear the hap- py|
w: ||||
w: ||||
 G2 B2 A2 F2 | [EG]2 [CE]2 [EG]2 [CE]2 | [^DA]4 [EG]4 | [Ec][Ec][Ec][Ec] [Ec]2 [Ec]2 | B6 z2 | %29
w: child- ren sing- ing,|Ring- ing, ring- ing,|ring- ing,|Hear the hap- py child- ish|throng;|
w: |||||
w: |||||
 [CA][FA][FA][FA] [FB]2 [Fc]2 | [EG][EG][EG][EG] [Ec]2 [Ee]2 | [Fd][Fd][Fd][Fd] [FA]2 [FB]2 | %32
w: Mu- sic sweet is sound- ing,|On the air re- sound- ing,|Lis- ten to the joy- ous|
w: |||
w: |||
 [Ec]6 |] %33
w: song.|
w: |
w: |
V:2
 x2 | x8 | x8 | x2 F2 x4 | x8 | x8 | x8 | x2 G2 x4 | G6 G>G | x8 | x8 | x8 | x8 | x2 F2 F2 F2 | %14
 x8 | x8 | C6 x2 || x8 | x8 | x6 E2 | x8 | x8 | x8 | x8 | G2 B2 A2 F2 | x8 | x8 | x8 | (E4 D2) x2 | %29
 x8 | x8 | x8 | x6 |] %33
V:3
 [C,G,]>[C,G,] | [C,C]2 [C,C]2 [C,C]2 [C,C]2 | [C,C]2 [C,C]4 [C,C]>[C,C] | %3
w: ~ ~|~ ~ ~ ~|~ ~ ~ ~|
 [F,C]2 [F,A,]2 [F,A,]2 [F,C]2 | [C,C]6 [C,G,]>[C,G,] | [C,C]2 [C,C]2 [C,C]2 [C,C]2 | %6
w: ~ ~ ~ ~|~ ~ ~|~ ~ ~ ~|
 [C,C]2 [C,C]4 [C,C]>[C,C] | [D,B,]2 [D,B,]2 [D,D]2 [D,C]2 | [G,B,]6 [G,B,]>[G,B,] | %9
w: ~ ~ ~ ~|~ ~ ~ ~|~ ~ ~|
 [G,B,]2 [G,B,]2 [G,D]2 [G,C]2 | [G,B,]2 [G,B,]4 [G,B,]>[G,B,] | [G,B,]2 [G,B,]2 [G,D]2 [G,B,]2 | %12
w: ~ ~ ~ ~|~ ~ ~ ~|~ ~ ~ ~|
 [C,C]6 [C,C]>[C,C] | [F,C]2 [F,C]2 [F,A,]2 [F,C]2 | [C,C]2 [C,C]4 [C,A,]>[C,C] | %15
w: ~ ~ ~|~ ~ ~ ~|~ ~ ~ ~|
 [C,C]2 [C,G,]2 [G,,F,]3 [G,,F,] | [C,E,]6 z2 || [C,C]2 [C,G,]2 [C,C]2 [C,G,]2 | %18
w: ~ ~ ~ ~|~|~ ~ ~ ~|
 [C,^F,]2 [C,A,]2 [C,C]2 [C,C]2 | [C,G,]2 [C,G,]2 [C,G,]2 [C,G,]2 | %20
w: ring- ing, ring- ing,|~ ~ ~ ~|
 [G,B,][G,B,][G,B,][G,B,] [G,B,]4 | [G,B,]2 [G,B,]2 [G,B,]2 [G,B,]2 | %22
w: ~ ~ ~ ~ ~|~ ~ ~ ~|
 [G,B,]2 [G,B,]2 [G,B,]2 [G,B,]2 | [G,B,]2 [G,B,]2 [G,B,]2 [G,B,]2 | G,2 B,2 A,2 F,2 | %25
w: sing- ing, sing- ing,|~ ~ ~ ~|~ ~ ~ ~|
 [C,C]2 [C,G,]2 [C,C]2 [C,G,]2 | [C,^F,]2 [C,A,]2 [C,C]2 [C,C]2 | %27
w: ~ ~ ~ ~|ring- ing, ring- ing|
 [C,G,][C,G,][C,G,][C,G,] [C,G,]2 [C,G,]2 | [E,^G,]6 z2 | [F,A,][F,C][F,C][F,C] [F,B,]2 [F,A,]2 | %30
w: |||
 [G,C][G,C][G,C][G,C] [G,C]2 [G,C]2 | [G,B,][G,B,][G,B,][G,B,] [G,D]2 [G,D]2 | [C,C]6 |] %33
w: |||
V:4
 x2 | x8 | x8 | x8 | x8 | x8 | x8 | x8 | x8 | x8 | x8 | x8 | x8 | x8 | x8 | x8 | x8 || x8 | x8 | %19
 x8 | x8 | x8 | x8 | x8 | G,2 B,2 A,2 F,2 | x8 | x8 | x8 | x8 | x8 | x8 | x8 | x6 |] %33

